X: 50
T: String Quartet No. 13 in B\b Major, Op. 130 mvt 1
C: Ludwig van Beethoven
%%abc-version 2.0
%%abcx-abcm2ps-target-version 5.9.1 (29 Sep 2008)
%%abc-creator hum2abc beta
%%abcx-conversion-date 2021/01/27 10:01:13
%%abc-edited-by Craig Stuart Sapp
%%abcx-initial-encoding-date 2004/09/10/
%%gracespace 0 6 6
%%humdrum-veritas 3816271747
%%humdrum-veritas-data 869497066
%%linebreak <none>
%%barnumbers 0
L: 1/16
M: 3/4
N: Derived from quartet13-1.krn
Q: "Adagio ma non troppo - Allegro" 1/4=54
%%staves [1 2 3 4]
V: 1 clef=treble
V: 2 clef=treble
V: 3 clef=alto
V: 4 clef=bass
K: Bb
[V:1] B,4 [I:setbarnb 1]| 
[V:2] B,4 | 
[V:3] B,4 | 
[V:4] B,,4 | 
[V:1] A,4>_A,4G,2E2 | 
[V:2] A,4>_A,4G,2C2 | 
[V:3] A,4>_A,4G,2G,2 | 
[V:4] A,,4>_A,,4G,,2C,,2 | 
[V:1] D4C2 z2B4 | 
[V:2] B,4=A,2 z2D4 | 
[V:3] F,4F,2 z2F,4 | 
[V:4] D,,2E,,2F,,2 z2 F,2B,,2 | 
[V:1] A4>_A4G2=A2 | 
[V:2] E4>=B,4C2[C2E2] | 
[V:3] F,4>F,4G,2F,2 | 
[V:4] C,4>D,4E,2F,2 | 
[V:1] A4B2 z2 z2 c2 | 
[V:2] [C4E4][B,2D2] z2 z2 C2 | 
[V:3] F,4-F,2 z2 z2 F,2 | 
[V:4] F,4B,,2 z2 z2 =A,,2 | 
[V:1] c4d2 z2 z2 =e2 | 
[V:2] C4B,2 z2 z2 B,2 | 
[V:3] F,4-F,2 z2 z2 [C,2G,2] | 
[V:4] A,,4G,,2 z2 z2 G,,2 | 
[V:1] =e8-e2gf | 
[V:2] B,4B4-B3A | 
[V:3] [C,4G,4]G4-G2=EF | 
[V:4] G,,4C,,4C,2F,,2 | 
[V:1] f4z4z4 | 
[V:2] A4z4z4 | 
[V:3] F4z4z4 | 
[V:4] F,,2[K:clef=tenor] .F2.F2.F2F2^F2 | 
[V:1] z12 | 
[V:2] z2 =B,2C2D2E2=E2 | 
[V:3] z12 | 
[V:4] G2D=F E2=B,D C2_B,2 | 
[V:1] z12 | 
[V:2] .F2.F2.F2.F2F2^F2 | 
[V:3] z12 | 
[V:4] B,2A,2G,2F,2E,2D,2 | 
[V:1] z12 | 
[V:2] G2D=F E2=B,D C2_B,2 | 
[V:3] z2 .F,2.F,2.F,2G,2G,2 | 
[V:4] [K:clef=bass]E,2=B,,2C,2D,2E,2=E,2 | 
[V:1] z2 .f2.f2.b2b2=b2 | 
[V:2] B,2A,2G2F2_A2_A,2 | 
[V:3] G,2F,2.F,2.F,2.F,2F,2 | 
[V:4] =E,2F,2_E,2D,2 D,,2D,,2 | 
[V:1] c'2gb _a2=eg f2_e2 | 
[V:2] G,2C4c4c2 | 
[V:3] C,2G,2F,2B,2_A,2_G,2 | 
[V:4] E,,2=E,,2F,,2G,,2_A,,2=A,,2 | 
[V:1] e2d2c2B2A2_A2 | 
[V:2] c2B2 [_G2=A2]F4B,2- | 
[V:3] _G,2F,2E,2D,2E,2F,2 | 
[V:4] A,,2B,,2 .B,,2B,,2 C,2D,2 | 
[V:1] G2fe!fermata!e4dedc | 
[V:2] B,2B2A2!fermata!c2z4 | 
[V:3] =G,2>B,2 C2!fermata!=A,2z4 | 
[V:4] E,2G,2_G,2!fermata!F,2z4 | 
[V:1] [M:C][M:4/4]BcBA GAGF EFED CDCB, | 
[V:2] [M:C][M:4/4]z4B4B4B2B2 | 
[V:3] [M:C][M:4/4]z16 | 
[V:4] [M:C][M:4/4]z16 | 
[V:1] B,A,G,A, CFAB c=Bcd efed | 
[V:2] e12z4 | 
[V:3] [C12A12]z4 | 
[V:4] F,12z4 | 
[V:1] cdcB ABAG FGFE DEDC | 
[V:2] z4c4c4c2c2 | 
[V:3] z16 | 
[V:4] z16 | 
[V:1] CB,A,B, DFBd fgfe dedc | 
[V:2] f8-fedc BcBA | 
[V:3] B12DCDE | 
[V:4] D,12B,A,B,C | 
[V:1] BABc defg abc'd' .e'2.d'2 | 
[V:2] GFGA Bcde fgab .c'2.b2 | 
[V:3] FGFE DCB,A, G,F,E,D, .C,2.B,2 | 
[V:4] DEDC B,A,G,F, E,D,C,B,, .A,,2.B,,2 | 
[V:1] [M:3/4].f'4z4z4 | 
[V:2] [M:3/4].a4z4z4 | 
[V:3] [M:3/4].C4z4z4 | 
[V:4] [M:3/4].F,,4z4F,,4 | 
[V:1] z12 | 
[V:2] C4B,6G2 | 
[V:3] z4G,2_G,2F,2_D,2 | 
[V:4] =E,,4>_E,,4D,,2B,,2 | 
[V:1] z4z4A4 | 
[V:2] F4=E2 z2C4- | 
[V:3] C,2=B,2C2_B,2F,4 | 
[V:4] A,,4G,,2 z2 F,,2F,,2 | 
[V:1] G4c'4b4- | 
[V:2] C2B,2G,2A,2 B,2[G2B2]- | 
[V:3] =E,4>_E,4D,2=E,2 | 
[V:4] F,,2F,,2F,,2F,,2F,,2F,,2 | 
[V:1] b2d2c2 !fermata!z2 c=Bc_B | 
[V:2] [G2B2]B,2A,2 !fermata!z2 c'd'c'b | 
[V:3] =E,2F,4!fermata!z2 A^GA=G | 
[V:4] F,,2F,,2-F,,2 !fermata!z2z4 | 
[V:1] [M:C][M:4/4]A4f4f4f2f2 | 
[V:2] [M:C][M:4/4]abag fgf=e dedc BcBA | 
[V:3] [M:C][M:4/4]F=EFE DEDC B,CB,A, G,A,G,F, | 
[V:4] [M:C][M:4/4]z4[K:clef=tenor]F4F4F2F2 | 
[V:1] b12z4 | 
[V:2] AGFG B=ega b=EGA BcBA | 
[V:3] F,=E,D,E, G,C=EF GC=E,F, G,A,G,F | 
[V:4] C12z4 | 
[V:1] z4g4g4g2g2 | 
[V:2] GAGF =EFED CDCB, A,BAG | 
[V:3] =EFED CDCB, A,B,A,G, F,F,F,=E, | 
[V:4] z4[K:clef=bass]C4C4C2C2 | 
[V:1] c'12z4 | 
[V:2] GF=EF Acfa c'dcB ABAG | 
[V:3] B,A,G,A, F,A,CF CB,A,G, F,F,F,=E, | 
[V:4] A,12CDCB, | 
[V:1] z16 | 
[V:2] F=EFG ABcd =efga b2a2 | 
[V:3] C,C,D,=E, F,G,A,B, CD=EF G2F2 | 
[V:4] A,B,A,G, F,=E,D,C, B,,A,,G,,F,, =E,,2F,,2 | 
[V:1] z8z4d'e'd'c' | 
[V:2] AGAB cdef gabc' g2a2 | 
[V:3] CB,CD EFGA Bcde f2e2 | 
[V:4] F,B,A,G, F,E,D,C, B,,A,,G,,F,, F,,2F,2 | 
[V:1] bc'ba gagf efed cdcB | 
[V:2] B,A,B,C DCDE FEFG AGAB | 
[V:3] D,C,D,E, F,E,F,G, A,G,A,B, CB,CD | 
[V:4] B,4B,,4B,,4B,,2B,,2 | 
[V:1] BAGA cfab c'bc'd' e'f'e'd' | 
[V:2] cccc cFFF FFFF FG,A,B, | 
[V:3] G,F,=E,F, A,CFG AGAB cdcB | 
[V:4] E,12z4 | 
[V:1] c'd'c'b abag fgfe dedc | 
[V:2] CB,CD EDEF GFGA BABc | 
[V:3] ABAG FGFE DEDC B,CB,A, | 
[V:4] z4C,4C,4C,2C,2 | 
[V:1] cBAB dfab cBAB dfg_a | 
[V:2] GFEF BFED GFEF _AFED | 
[V:3] EDCD FDCB, EDCD FDC=B, | 
[V:4] F,8F,4F,2F,2 | 
[V:1] c=B^AB dfg_a g=a=bc' d'e'f'g' | 
[V:2] _ADFF AFED CGGG GGGG | 
[V:3] F,_A,DD FDC=B, G,G,G,G, FFEE | 
[V:4] F,8E,4D,2C,2 | 
[V:1] .f'2.g'2.a'2.b'2 gf=ef ac'e'a | 
[V:2] BFFF EEDD _DD=DD EEEE | 
[V:3] B,B,B,B, FFF,F, B,B,B,B, A,A,CC | 
[V:4] D,4C,2B,,2F,4F,,4 | 
[V:1] .d'2^c'e' .d'2a=c' .b2f_a .g2df | 
[V:2] D2 z2z4z8 | 
[V:3] .B,2.F,2.F,2.E,2 F,2B,2B,2B,2 | 
[V:4] .B,,2.A,,2.B,,2.C,2 D,2D,2E,2F,2 | 
[V:1] .e4z4z2 =eg .f2c_e | 
[V:2] G,2 =B,D .C2G,_B, .A,2 .B2.c2 Ac | 
[V:3] B,2 .D2.E2.=E2 F2G2A2F2 | 
[V:4] G,4z4z8 | 
[V:1] .d2^c'e'.d'2 .E2.F2 f_a .g2 B2 | 
[V:2] B2 z2 z2 ac' .b2 B,2B,2 df | 
[V:3] .B,2.F,2.F,2 .C2.D2 z2 z2 .F2 | 
[V:4] .B,,2.A,,2.B,,2 z2 z2 .D,2.E,2 z2 | 
[V:1] B2 z2z4z2 =eg .f2.f2 | 
[V:2] .e2 z2 z2 GB .A2 .B2.c2 F2 | 
[V:3] .G2 =B,D .C2 .C2.C2 .G2.A2 CE | 
[V:4] z2 .D,2.E,2 .=E,2.F,2 z2 z2 A,2 | 
[V:1] d'4z4=c'bag abc'd' | 
[V:2] F4z4{/g2f2=e2}f4z4 | 
[V:3] DCB,A, B,CDE .F2FG FEDC | 
[V:4] B,4z4A,,G,,F,,=E,, F,,G,,A,,B,, | 
[V:1] d'4z4c'bag abc'd' | 
[V:2] {/G2F2=E2}F4z4{/g2f2=e2}f4z4 | 
[V:3] DCB,A, B,CDE .F2FG FEDC | 
[V:4] B,,4z4A,,G,,F,,=E,, F,,G,,A,,B,, | 
[V:1] .d'2ba bc'd'e' .d'2g^f gabc' | 
[V:2] .d2de dcBA .B2Bc BAG^F | 
[V:3] .D2DE DCB,A, .B,2B,C B,A,G,^F, | 
[V:4] .B,,2D,E, D,C,B,,A,, .B,,2B,,C, B,,A,,G,,^F,, | 
[V:1] .b2=ed e=fga .b2ba bc'd'=e' | 
[V:2] .G2GA G=F=ED .C2cd cBAG | 
[V:3] .G,2G,A, G,=F,=E,D, .C,2CD CB,A,G, | 
[V:4] .G,,2G,,A,, G,,=F,,=E,,D,, .C,,2C,D, C,B,,A,,G,, | 
[V:1] .f'2.c'2.a2.f2 .e2.c2.A2.F2 | 
[V:2] .F2.c'2.a2.f2 .e2.c2.A2.F2 | 
[V:3] .F,2.c2.A2.F2 .E2.C2.A,2.F,2 | 
[V:4] .F,,2.C2.A,2.F,2 .E,2.C,2.A,,2.F,,2 | 
[V:1] E2D2F2B2 d2f2b2=e2 | 
[V:2] E2D2F2B2 d2F2B2=E2 | 
[V:3] E,2D,2F,2B,2 D2F2B2=E2 | 
[V:4] E,,2D,,2F,,2B,,2 D,2F,2B,2=E,2 | 
[V:1] .f4.c'4f'8- | 
[V:2] F2c'2a2f2 e2c2A2F2 | 
[V:3] F2c2A2F2 E2C2A,2F,2 | 
[V:4] F,2C2A,2F,2 E,2C,2A,,2F,,2 | 
[V:1] f'2D2F2B2 d2f2b2d'2 | 
[V:2] E2D2F2B2 d2f2b2d'2 | 
[V:3] E,2D,2F,2B,2 D2F2B2d2 | 
[V:4] E,,2D,,2F,,2B,,2 D,2F,2B,2D2 | 
[V:1] {/f'}A4>B4c4-cd=ef | 
[V:2] f4z4F4-FFGA | 
[V:3] F4z4z8 | 
[V:4] [K:clef=tenor]F4-F=EDC .B,2.A,2.G,2.F,2 | 
[V:1] g4-gf=ed c2B2A2G2 | 
[V:2] B4-BAGF =E2D2C2B,2 | 
[V:3] C,4-C,D,=E,F,[C,4G,4]-[C,G,]C,D,E, | 
[V:4] =E,2F,2G,2A,2 B,2C2D2=E2 | 
[V:1] F2 z2 _G2 z2 =G2 z2 _A2 z2 | 
[V:2] F2 z2 _G2 z2 G,2 z2 _A,2 z2 | 
[V:3] F,2 z2 _G,2 z2 =G,2 z2 _A,2 z2 | 
[V:4] [K:clef=bass]F,,2 z2 _G,,2 z2 =G,,2 z2 _A,,2 z2 | 
[V:1] =A2 z2 B2 z2 _c2 z2 =c2 z2 | 
[V:2] =A,2 z2 B,2 z2 _C2 z2 =C2 z2 | 
[V:3] =A,2 z2 B,2 z2 _C2 z2 =C2 z2 | 
[V:4] =A,,2 z2 B,,2 z2 _C,2 z2 =C,2 z2 | 
[V:1] _d12z4 | 
[V:2] _D12z4 | 
[V:3] _D,12z4 | 
[V:4] _D,12D,E,D,_C, | 
[V:1] z16 | 
[V:2] z16 | 
[V:3] z16 | 
[V:4] B,,12B,,_C,B,,_A,, | 
[V:1] B,8_G8 | 
[V:2] z8__B,8 | 
[V:3] z8C,8 | 
[V:4] _G,,16- | 
[V:1] .F4.E4._D4._C4 | 
[V:2] _A,8F8 | 
[V:3] _D,8_A,8 | 
[V:4] G,,16- | 
[V:1] B,4_D4>z4z4 | 
[V:2] _G8z8 | 
[V:3] B,8z8 | 
[V:4] G,,8-G,,2_D,=C, D,E,D,_C, | 
[V:1] z16 | 
[V:2] z16 | 
[V:3] z16 | 
[V:4] B,,8-B,,2B,,=A,, B,,_C,B,,_A,, | 
[V:1] B8_g8 | 
[V:2] z8__B,8- | 
[V:3] z8C,8- | 
[V:4] _G,,16- | 
[V:1] .f4.e4._d4.=c4 | 
[V:2] B,8.B,4.C4 | 
[V:3] C,8._D,4._G,4 | 
[V:4] G,,12_A,,4 | 
[V:1] _c8B8 | 
[V:2] __E8_D8 | 
[V:3] F,8_G,8 | 
[V:4] _A,,8B,,8 | 
[V:1] ._A8-.A8 | 
[V:2] ._G8-.G8 | 
[V:3] .E,8.E8 | 
[V:4] ._C,8.=C,8 | 
[V:1] _A4>B4_c4z4 | 
[V:2] _D12_A4 | 
[V:3] F,4>_G,4_A,4z4 | 
[V:4] _D,12F,,4 | 
[V:1] _G4>_A4B4z .B.A.G | 
[V:2] B,8_G4z4 | 
[V:3] B,12_D,.B,._A,._G, | 
[V:4] _D,12_G,,.B,,._A,,.G,, | 
[V:1] F4z _GFE_D4z _cB_A | 
[V:2] z8z4z _DDD | 
[V:3] F,4z _G,F,E,_D,4z F,G,_A, | 
[V:4] F,,4z _G,,F,,E,,_D,,4z D,,E,,F,, | 
[V:1] B4z4z4z _GFE | 
[V:2] _D4z4z8 | 
[V:3] _D,4z4z4z _G,F,E, | 
[V:4] _G,,4z4z4z G,,F,,E,, | 
[V:1] D4z E_D_CB,4z _A_GF | 
[V:2] z8z4z B,B,B, | 
[V:3] D,4z E,_D,_CB,4z F,F,F, | 
[V:4] D,,4z E,_D,_C,B,,4z B,,=C,=D, | 
[V:1] _G4z FE_D=C4z B_AG | 
[V:2] B,4z B,B,B,E4z C_DE | 
[V:3] _G,4z G,G,G,G,4z G,F,E, | 
[V:4] E,4z E,E,E,_A,,4z A,,B,,C, | 
[V:1] F4z e_d_cB4z _gfg | 
[V:2] _A,4z _AAA_G4z B,B,B, | 
[V:3] F,4z F,F,F,_G,4z G,G,G, | 
[V:4] _D,4z _D,,D,,D,,E,,4z E,,E,,E,, | 
[V:1] _A4z e=deF4b_c'b_a | 
[V:2] E4z =CCC_C4z4 | 
[V:3] _G,4z G,G,G,_A,4_D,4- | 
[V:4] _C,4z _A,,A,,A,,_D,4z4 | 
[V:1]  [K:Gb] bc'ba gagf fgfe ded=c | 
[V:2]  [K:Gb] D16- | 
[V:3]  [K:Gb] D,4E,8F,4- | 
[V:4]  [K:Gb] G,,8A,,8 | 
[V:1] cdcB ABAG FGFE DEDC | 
[V:2] D16- | 
[V:3] F,4G,4A,4F,4 | 
[V:4] B,,8C,4D,4 | 
[V:1] .B,4.B4.d4.d4 | 
[V:2] DED=C DED_C B,CB,A, BcBA | 
[V:3] .D,4.B,4.A,4.D4 | 
[V:4] .G,4.G,4.F,4.F,4 | 
[V:1] e4f4g4a4 | 
[V:2] GAGF GAGF FGFE EDEF | 
[V:3] G4F4E4A,4 | 
[V:4] E,4D,4=C,4_C,4 | 
[V:1] .g4.a4.d4.f4 | 
[V:2] DEDC CDCB, B,CB,A, B,CB,A, | 
[V:3] D,4E,F,E,G, G,A,G,F, G,A,G,F, | 
[V:4] .B,,4.C,4.D,4.D,4 | 
[V:1] z4cdcB.A4.A4 | 
[V:2] B,4z4z4dedc | 
[V:3] G,4z4z8 | 
[V:4] z4.A,,4.D,,4.F,,4 | 
[V:1] Gbag fgfe dedc BcBA | 
[V:2] .B4z4.F4.F4 | 
[V:3] z4A,B,A,G,.F,4.F4 | 
[V:4] .B,,4.B,,4.D,4.D,4 | 
[V:1] G4z4z8 | 
[V:2] .G4.E4.B4.B4 | 
[V:3] B,4A,B,A,G,.G,4GAGF | 
[V:4] E,4F,4G,4A,4 | 
[V:1] z16 | 
[V:2] B4=c4d4A4 | 
[V:3] .E4.E4.F4DB,A,G, | 
[V:4] .G,4.A,4.D,4F,G,F,E, | 
[V:1] z8z4gagf | 
[V:2] .G4.A4.D4z4 | 
[V:3] G,A,G,F, FGFE EDCB,.B,4 | 
[V:4] E,F,E,D, D,E,D,C, C,B,,A,,G,,z4 | 
[V:1] fgfe dedc cBAG c'd'c'b | 
[V:2] z4.g4.B4.c4 | 
[V:3] .A,4.B,4.D,4z4 | 
[V:4] z4B,,C,B,,A,, A,,G,,F,,G,, A,,B,,A,,G,, | 
[V:1] .a4bc'ba.g4abag | 
[V:2] .c4.f4.B4AGFE | 
[V:3] ABAG.F4GAGF.E4 | 
[V:4] F,,G,,F,,E,,.=D,,4E,,F,,E,,_D,,.=C,,4 | 
[V:1] fed=c .B2.b2 =c'd'c'b .=a2.f'2 | 
[V:2] FGFE.D4EFED.=C4 | 
[V:3] z4GAGF.E4.F,4 | 
[V:4] .D,,4.G,,4.=C,,4[K:clef=tenor]FGFE | 
[V:1] .B2.f2g4-g2.g2.a2.b2 | 
[V:2] BcBA .G2e2- e2.e2.f2.g2 | 
[V:3] .F4EAGF EFED CDCB, | 
[V:4] .=D4EFE_D CDCB, A,B,A,G, | 
[V:1] .c'2.=c'2d'4-d'2.e'2f'4- | 
[V:2] abag fgfe dedc BcBA | 
[V:3] .A,2.A2.D,2.A,2 D,2D2 D,2D2 | 
[V:4] [K:clef=bass].F,2.E,2.D,2.=C,2 ._C,2.B,,2.A,,2.G,,2 | 
[V:1] f'2.g'2a'4-a'2.f2.g2.a2 | 
[V:2] ABAG FGFE DEDC B,CB,A, | 
[V:3] D,2D2 D,2A,2 F,2D2 D,2A,2 | 
[V:4] F,,2E,,2D,,2=C,,2 C,2A,,2G,,2F,,2 | 
[V:1] b8e'8 | 
[V:2] G16 | 
[V:3] G,A,G,F, G,A,G,F, G,A,G,F, G,A,G,F, | 
[V:4] G,,8C,8 | 
[V:1] d'8f'8 | 
[V:2] G8c8 | 
[V:3] G,A,G,F, F,G,F,E, E,F,E,D, E,F,E,D, | 
[V:4] B,,8A,,8 | 
[V:1] g'8a'8 | 
[V:2] B8c8 | 
[V:3] D,8D,4E,D,E,F, | 
[V:4] A,,B,,A,,G,, A,,B,,A,,G,, G,,A,,G,,F,, E,,F,,E,,D,, | 
[V:1] .g'2.G2G2_F2 F2E2G2 .E2 | 
[V:2] .B2.G2G2_F2 F2E2G2 .E2 | 
[V:3] .G,2.G,2G,2_F,2 F,2E,2G,2 .E,2 | 
[V:4] .G,,2.G,2G,2_F,2 F,2E,2G,2 .E,2 | 
[V:1] E2D2G2 ._F2 F2E2G2 .E2 |[1 
[V:2] E2D2G2 ._F2 F2E2G2 .E2 | 
[V:3] E,2D,2G,2 ._F,2 F,2E,2G,2 .E,2 | 
[V:4] E,2D,2G,2 ._F,2 F,2E,2G,2 .E,2 | 
[V:1] E2D2G2 .C2 C2B,2G2 .B,2 | 
[V:2] E2D2G2 .C2 C2B,2G2 .B,2 | 
[V:3] E,2D,2G,2 .C2 C2B,2G2 .B,2 | 
[V:4] E,2D,2G,2 .C,2 C,2B,,2G,2 .B,,2 | 
[V:1] B,4=A,12 :|][2 
[V:2] B,4=A,12 :|]  
[V:3] B,4=A,12 :|]  
[V:4] B,,4=A,,12 :|]  
[V:1] E2D2G2 .C2 C2B,2G2 .G2 | 
[V:2] E2D2G2 .C2 C2B,2G2 .G2 | 
[V:3] E,2D,2G,2 .C2 C2B,2G2 .G,2 | 
[V:4] E,2D,2G,2 .C,2 C,2B,,2G,2 .G,,2 | 
[V:1] G4!fermata!=F8z4 | 
[V:2] G4!fermata!=F8z4 | 
[V:3] G,4!fermata!=F,8G,4- | 
[V:4] G,,4!fermata!=F,,8G,,4 | 
[V:1] [M:3/4]z12 | 
[V:2] [M:3/4]A,4>B,4 C2C2 | 
[V:3] [M:3/4]G,12- | 
[V:4] [M:3/4]F,,4>_F,,4 E,,2C,2 | 
[V:1] z12 | 
[V:2] D4>z4z4 | 
[V:3] G,4F,2 z2z4 | 
[V:4] B,,4A,,2 z2z4 | 
[V:1] [M:C][M:4/4]z4^c4c4c2c2 | 
[V:2] [M:C][M:4/4]z4^c^dc=B ^ABA^G^F4 | 
[V:3] [M:C][M:4/4]z16 | 
[V:4] [M:C][M:4/4]z16 | 
[V:1]  [K:D] [M:3/4]f8z4 | 
[V:2]  [K:D] [M:3/4]z4z4=D4- | 
[V:3]  [K:D] [M:3/4]z4z4=D,4 | 
[V:4]  [K:D] [M:3/4]z4z4=D,,4 | 
[V:1] z12 | 
[V:2] D8-D2E2 | 
[V:3] E,4>F,4 G,2G,2 | 
[V:4] C,,6=C,,=C, B,,2^C,2 | 
[V:1] z12 | 
[V:2] A,8z4 | 
[V:3] G,4F,4z4 | 
[V:4] C,4D,4z4 | 
[V:1] [M:C][M:4/4]z4A4A4A2A2 | 
[V:2] [M:C][M:4/4]z4ABAG FGFED4 | 
[V:3] [M:C][M:4/4]z16 | 
[V:4] [M:C][M:4/4]z16 | 
[V:1] [M:3/4]d8z4 | 
[V:2] [M:3/4]z4z4z2 E2 | 
[V:3] [M:3/4]z4z4z2 G,2 | 
[V:4] [M:3/4]z4z4z2 C,2 | 
[V:1] z4z4z2 e2 | 
[V:2] A,8z2 G2 | 
[V:3] G,4F,4z2 C2 | 
[V:4] C,4D,4z4 | 
[V:1] A8z4 | 
[V:2] G4F4z2 E2 | 
[V:3] C4D4z2 G,2 | 
[V:4] z4z4z2 C,2 | 
[V:1] [M:C][M:4/4]z16 | 
[V:2] [M:C][M:4/4]A,4>z4A,6z2 | 
[V:3] [M:C][M:4/4]G,4F,2 z2G,4F,2 z2 | 
[V:4] [M:C][M:4/4]C,4D,2 z2C,4D,2 z2 | 
[V:1] z4A4A4A2A2 | 
[V:2] A,4>z4A,4ABAG | 
[V:3] G,4F,2 z2G,4F,2 z2 | 
[V:4] C,4D,2 z2C,4D,2 z2 | 
[V:1] d4z4z8 | 
[V:2] F4D2 z2F4D2 z2 | 
[V:3] D4F,2 z2D4F,2 z2 | 
[V:4] [K:clef=tenor]A,8A8- | 
[V:1] z16 | 
[V:2] D4A,2 z2F4A,2 z2 | 
[V:3] F,4D,2 z2A,4D,2 z2 | 
[V:4] A4G2F2 E2D2F2D2 | 
[V:1] z16 | 
[V:2] D4A,2 z2D4A,2 z2 | 
[V:3] G,4F,2 z2G,4F,2 z2 | 
[V:4] [K:clef=bass]B,,4=C,2 z2B,,4C,2 z2 | 
[V:1] z4d4d4d2d2 | 
[V:2] D4A,2 z2D4ABAG | 
[V:3] G,4F,2 z2G,4F,2 z2 | 
[V:4] B,,4=C,2 z2B,,4C,2 z2 | 
[V:1] d'8z8 | 
[V:2] G4F2 z2G4F2 z2 & A,6x2A,6x2 | 
[V:3] =C,4D,2 z2C,4D,2 z2 | 
[V:4] [K:clef=tenor]A,8A8- | 
[V:1] z16 | 
[V:2] [A,4A4]=C2 z2[A,4A4]C2 z2 | 
[V:3] =C,4D,2 z2C,4D,2 z2 | 
[V:4] A4G2F2 E2D2E2F2 | 
[V:1] z4g4g4g2g2 | 
[V:2] =C4B,2 z2[C4A4][B,2G2] z2 | 
[V:3] D,4G,2 z2D,4G,2 z2 | 
[V:4] A4G2 z2z8 | 
[V:1]  [K:G] =c'8z8 | 
[V:2]  [K:G] [B,4G4][A,2F2] z2[B,4G4][A,2F2] z2 | 
[V:3]  [K:G] D4C2 z2D4C2 z2 | 
[V:4]  [K:G] [K:clef=bass]z4D,,4D,,4D,,2D,,2 | 
[V:1] z16 | 
[V:2] A4G2 z2A4G2 z2 | 
[V:3] C4B,2 z2C4B,2 z2 & D,6x2D,6x2 | 
[V:4] F,,4G,,2 z2F,,4G,,2 z2 | 
[V:1] z4d4d4d2d2 | 
[V:2] A4G2 z2A4BcBA | 
[V:3] C4B,2 z2 CDCB, B,2 z2 & D,6x2D,6x2 | 
[V:4] F,,4G,,2 z2F,,4G,,2 z2 | 
[V:1] g8z8 | 
[V:2] C4B,2 z2G4B,2 z2 | 
[V:3] A,4G,2 z2B,4G,2 z2 | 
[V:4] D,8D8- | 
[V:1] z16 | 
[V:2] G4D2 z2G4D2 z2 | 
[V:3] B,4G,2 z2B,4G,2 z2 | 
[V:4] D4C2B,2 A,2G,2B,2G,2 | 
[V:1] z4d4d4d2d2 | 
[V:2] C4A,2 z2C4A,2 z2 | 
[V:3] A,4D,2 z2A,4D,2 z2 | 
[V:4] G,,4F,,2 z2G,,4F,,2 z2 | 
[V:1] d'8z8 | 
[V:2] C4A,2 z2D4C2 z2 | 
[V:3] A,4F,2 z2E,4F,2 z2 | 
[V:4] z4D,,4D,,4D,,2D,,2 | 
[V:1] z4d2d2d'8 | 
[V:2] C4B,2 z2[D4B4][C2A2] z2 | 
[V:3] F,4G,2 z2E,4F,2 z2 | 
[V:4] G,,8z4D,,2D,,2 | 
[V:1] z4d2d2d'8 | 
[V:2] C4B,2 z2[D4B4][C2A2] z2 | 
[V:3] F,4G,2 z2E,4F,2 z2 | 
[V:4] G,,8z4D,,2D,,2 | 
[V:1] z8z4g2g2 | 
[V:2] C4B,2 z2C4B,2 z2 | 
[V:3] D,4=F,2 z2D,4F,2 z2 | 
[V:4] =F,,4D,,2D,,2F,,4D,,2D,,2 | 
[V:1] g8g'8- | 
[V:2] D4C2 z2D4C2 z2 | 
[V:3] _E,4G,2 z2E,4G,2 z2 | 
[V:4] C,,4G,,4G,,4G,,2G,,2 | 
[V:1] g'4=f'2_e'2 d'2c'2e'2c'2 | 
[V:2] D4C2 z2D4C2 z2 | 
[V:3] _E,4G,2 z2E,4G,2 z2 | 
[V:4] C,4G,4G,4G,2G,2 | 
[V:1] g4z4z8 | 
[V:2] D4C2 z2D4C2 z2 | 
[V:3] _E,4G,2 z2E,4G,2 z2 | 
[V:4] [K:clef=tenor]G,8G8- | 
[V:1] z4g4g4g2g2 | 
[V:2] D4C2 z2G4C2 z2 | 
[V:3] _E,4G,2 z2E,4G,2 z2 | 
[V:4] G4=F2_E2 D2C2E2C2 | 
[V:1] c'8z8 | 
[V:2] D4C2 z2D4C2 z2 | 
[V:3] =E,4G,2 z2E,4G,2 z2 | 
[V:4] .G,4C4C4C2C2 | 
[V:1] z4g2g2c'8 | 
[V:2] D4C2 z2D4C2 z2 | 
[V:3] C,4G,2 z2=E,4G,2 z2 | 
[V:4] =E8z4C2C2 | 
[V:1] z4g4g4g2g2 | 
[V:2] C4G,2 z2C4G,2 z2 | 
[V:3] C,4=E,2 z2C,4_E,2 z2 | 
[V:4] =E4C2C2_E4C2C2 | 
[V:1] g8g'8- | 
[V:2] G4_E2 z2E4A,2 z2 | 
[V:3] C,4_E,2 z2C,4=F,2 z2 | 
[V:4] _E16- | 
[V:1] g'4=f'2_e'2 d'2c'2_b2c'2 | 
[V:2] _e4A2 z2 e2=F2 GFGA | 
[V:3] =F,4C2 z2 F,2_E2 =FGF^D | 
[V:4] E12D_EDC | 
[V:1]  [K:Bb] .d'4b4b4b2b2 | 
[V:2]  [K:Bb] BABc dcde fefg agab | 
[V:3]  [K:Bb] DEDC B,CB,A, G,A,G,F, E,F,E,D, | 
[V:4]  [K:Bb] B,CB,A,[K:clef=bass] G,A,G,F, E,F,E,D, C,D,C,B,, | 
[V:1] e'12z4 | 
[V:2] c'12AGAB | 
[V:3] C,CB,C A,CFG AGAB cdcB | 
[V:4] B,,A,,B,,=E, F,G,A,B,[K:clef=tenor] C=B,CD EFED | 
[V:1] z4c'4c'4c'2c'2 | 
[V:2] cBcd edef gfga babc' | 
[V:3] ABAG FGFE DEDC B,CB,A, | 
[V:4] CDCB,[K:clef=bass] A,B,A,G, F,G,F,E, D,E,D,C, | 
[V:1] f'12f'g'f'e' | 
[V:2] d'12babc' | 
[V:3] E,D,C,D, F,B,DF DEDC FFGA | 
[V:4] C,B,,A,,B,, D,F,B,D FGFE DEDC | 
[V:1] d'g'f'e' d'c'ba gfff f2f2 | 
[V:2] fe'd'c' bagf edcB A2B2 | 
[V:3] BC,D,E, F,G,A,B, CDEF c2d2 | 
[V:4] B,A,,B,,C, D,E,F,G, A,B,CD E2D2 | 
[V:1] f4.f2.g2g4._f2.e2 | 
[V:2] A4._A2.c2 .=B2._B2._d2.d2 | 
[V:3] c4.c2.G2d4.G2._A2 | 
[V:4] F4.F2.E2G4z4 | 
[V:1] _a4._g2.=f2 bc'ba =gagf | 
[V:2] ._d2.c2 .c2.=d2 deff efec | 
[V:3] _A4.=A2.B2B4-BcB_A | 
[V:4] .F2.E2 z2 D2 .F2.D2E4 | 
[V:1] efed cdcB _ABAG FGFE | 
[V:2] BcB_A GAGF EFED CB,CB, | 
[V:3] G_AGF EFED CDCB, _A,G,A,G, | 
[V:4] z4E,4E,4E,2E,2 | 
[V:1] EG,EG eGeg ege'g .e'2e'2- | 
[V:2] [=B,12E12]g_agf | 
[V:3] [E,12G,12]z4 | 
[V:4] =B,,12z4 | 
[V:1] e'f'e'd' c'd'c'b _abag fgfe | 
[V:2] ecB_A GAGF EFED CB,CB, | 
[V:3] G_AGF EFED CDCB, _A,G,A,G, | 
[V:4] z4E,4E,4E,2E,2 | 
[V:1] EC=A,C E_G=Ac e_gfe edfd | 
[V:2] C12_C2B,2 | 
[V:3] _G,12F,4 | 
[V:4] =A,,12_A,,4- | 
[V:1] f=g_ab c'd'e'f' .g'2._a'2.b'2.=b'2 | 
[V:2] [B,8F8][B,4E4].[_A,2E2].[G,2E2] | 
[V:3] F,8=G,4.F,2.E,2 | 
[V:4] A,,8G,,4.F,,2.E,,2 | 
[V:1] c''2cd efg_a agab c'd'e'f' | 
[V:2] [=C4E4].[B,2E2].[_A,2E2][A,4D4].=A,2._A,2 | 
[V:3] _A,4.G,2.F,2F,4.E,2.F,2 | 
[V:4] _A,,4.G,,2.F,,2B,,4B,,4 | 
[V:1] g'f'e'd' e'f'g'_a' .b'2bc' b_agf | 
[V:2] G,4z4fedc defg | 
[V:3] E,4z4DCB,=A, B,CDE | 
[V:4] E,,4z4z4z2 E,,2 | 
[V:1] gfed efg_a .b2bc' bagf | 
[V:2] g4z4fedc defg | 
[V:3] E4z4DCB,=A, B,CDE | 
[V:4] E,,4z4z4z2 E,,2 | 
[V:1] .g2df .e2 E2E2 z2 z2 f_a | 
[V:2] .g2 ._A2.B2 =Ac .B2 z2 z2 BF | 
[V:3] E4z4z2 F_A .G2.B2 | 
[V:4] E,,2F,,2G,,2^F,2 G,2D2E2 D=F | 
[V:1] _gfed efg_a .b2b_c' bagf | 
[V:2] _G4z4FEDE _AFGA | 
[V:3] B4z4DCB,D FDEF | 
[V:4] E4z4z4B,2B,2 | 
[V:1] e4z4.b2b_c' b_a_gf | 
[V:2] B4z4FEDF _AF_GA | 
[V:3] _GFED EFG_A DCB,D FDEF | 
[V:4] E4z4z4.B,,2.B,,2 | 
[V:1] ._g2g_a gfe_d .=c2cd cB_Ae | 
[V:2] .B2.D2.E2.E2 .E2.E2.E2.C2 | 
[V:3] .E2._A,2.B,2.B,2 .C2.=G,2.A,2.A,2 | 
[V:4] .E,,2.F,,2._G,,2.=G,,2 ._A,,2.B,,2 .A,,2A,,_G,, | 
[V:1] f4z4e_dcB cdef | 
[V:2] _D4z4CB,_A,=G, A,B,CD | 
[V:3] _A,4z4.A,2A,B, A,_G,F,E, | 
[V:4] F,,E,,_D,,C,, D,,E,,F,,_G,, ._A,,2 z2 z2 A,,G,, | 
[V:1] f4z4c'b_a=g abc'_d' | 
[V:2] _d4z4cdcB cdef | 
[V:3] _D,4_GFE_D.C4FEDC | 
[V:4] F,,E,,_D,,C,, D,,E,,F,,_G,, ._A,,2 _A,B, A,_G,F,E, | 
[V:1] ._d'2ba bc'd'e' .e'2e=d efg_a | 
[V:2] .f2_dc def.f .=g2 E=D EFG_A | 
[V:3] ._D4DCB,_A, .=G,2EF EDCB, | 
[V:4] .F,2F,_G, F,E,_D,C, .B,,2 E,F, E,D,C,B,, | 
[V:1] ._a4.e'4_a'8- | 
[V:2] _A4z4z8 | 
[V:3] ._A,2.e2.c2._A2 ._G2.E2.C2.A,2 | 
[V:4] ._A,,2.E2.C2._A,2 ._G,2.E,2.C,2.A,,2 | 
[V:1] a'16- | 
[V:2] ._d4._A4_D8 | 
[V:3] _G,2F,2_A,2_D2 F2_A2_d2=G2 | 
[V:4] _G,,2F,,2_A,,2_D,2 F,2_A,2_D2=G,2 | 
[V:1] .a'2.e'2.c'2._a2 _g2e2c2_A2 | 
[V:2] .C2.e2.c2._A2 _G2E2C2_A,2 | 
[V:3] ._A,4.E4_A8 | 
[V:4] ._A,,4.E,4_A,8 | 
[V:1] _G2F2_A2_d2 f2_a2_d'2f'2 | 
[V:2] _G2F2_A2_d2 F2A2d2f2 | 
[V:3] _G,2F,2_A,2_D2 F2_A2_d2F2 | 
[V:4] _G,,2F,,2_A,,2_D,2 F,2_A,2_D2F,2 | 
[V:1] _a'4z4z4B,2 z2 | 
[V:2] _a4z4_A,2 z2 A,2 z2 | 
[V:3] _A4=G,2 z2 _G,2 z2 F,2 z2 | 
[V:4] [K:clef=tenor]_A,2 z2 B,2 z2 C2 z2 _D2 z2 | 
[V:1] _C2 z2 =C2 z2 =D2 z2 E2 z2 | 
[V:2] _A,2 z2 A,2 z2 A,2 z2 __B,2 z2 | 
[V:3] _F,2 z2 E,2 z2 =D,2 z2 _D,2 z2 | 
[V:4] =D2 z2 E2 z2 F2 z2 _G2 z2 | 
[V:1]  [K:Ab] E12z4 | 
[V:2]  [K:Ab] __B,12z4 | 
[V:3]  [K:Ab] C,12A,B,A,_G, | 
[V:4]  [K:Ab] _G12z4 | 
[V:1] z16 | 
[V:2] z16 | 
[V:3] F,12F,_G,F,E, | 
[V:4] z16 | 
[V:1] F8d8 | 
[V:2] z8F8 | 
[V:3] D,16- | 
[V:4] A,8__B,8 | 
[V:1] .c4.B4.A4._G4 | 
[V:2] _G8E4[A,4-E4] | 
[V:3] D,16- | 
[V:4] B,8._C4.=C4 | 
[V:1] F4A4>z4z4 | 
[V:2] A,16- | 
[V:3] D,8z8 | 
[V:4] D8[K:clef=bass]z2 A,,=G,, A,,B,,A,,_G,, | 
[V:1] z16 | 
[V:2] A,16- | 
[V:3] z2 A,=G, A,B,A,_G,F,8- | 
[V:4] F,,8-F,,2F,,=E,, F,,_G,,F,,_E,, | 
[V:1] F8d8 | 
[V:2] A,8__B,8 | 
[V:3] F,2F,=E, F,_G,F,_E,D,8- | 
[V:4] D,,8[K:clef=tenor]F8- | 
[V:1] .c4.B4.A4.=G4 | 
[V:2] B,8.C4.B,4 | 
[V:3] D,8E,8 | 
[V:4] F8E4-E2D2 | 
[V:1] _G8F8 | 
[V:2] __B,8A,8 | 
[V:3] E,8F,8 | 
[V:4] C8D8 | 
[V:1] E8E8 | 
[V:2] B,8B,8 | 
[V:3] _G,8=G,8 | 
[V:4] D8D8 | 
[V:1] E8D8 | 
[V:2] C8B,8 | 
[V:3] A,4_G,4F,8 | 
[V:4] [K:clef=bass]A,,4=A,,4B,,4[K:clef=tenor]F4 | 
[V:1] D8D8 | 
[V:2] B,8B,8 | 
[V:3] F,12=E,4 | 
[V:4] F12=G4 | 
[V:1] C12z4 | 
[V:2] =A,12z4 | 
[V:3] F,12z4 | 
[V:4] =A8[K:clef=bass]F,,4-F,,=G,,F,,E,, | 
[V:1]  [K:Bb] z16 | 
[V:2]  [K:Bb] z16 | 
[V:3]  [K:Bb] z16 | 
[V:4]  [K:Bb] D,,12D,,E,,D,,C,, | 
[V:1] z16 | 
[V:2] z16 | 
[V:3] D,8B,8 | 
[V:4] B,,16- | 
[V:1] z16 | 
[V:2] C8A8 | 
[V:3] .A,4.G,4.F,4.E,4 | 
[V:4] B,,16 | 
[V:1] f8d'8 | 
[V:2] B4d4f4b4 | 
[V:3] D,4F,12- | 
[V:4] B,,8-B,,2F,,=E,, F,,G,,F,,_E,, | 
[V:1] f'12a'4 | 
[V:2] F8-F2F=E FGF_E | 
[V:3] F,2F,=E, F,G,F,_E,D,4z4 | 
[V:4] D,,8-D,,2D,,^C,, D,,E,,D,,=C,, | 
[V:1] b'4f'12- | 
[V:2] D8b8 | 
[V:3] D,8D4B4 | 
[V:4] B,,16 | 
[V:1] f'12=e'4 | 
[V:2] .a4.g4.f4.=e4 | 
[V:3] .A4.G4.F4.G,4 | 
[V:4] C,16- | 
[V:1] e'8d'8 | 
[V:2] e8d8 | 
[V:3] [F,8A,8][F,8B,8] | 
[V:4] C,8D,8 | 
[V:1] c'8c'8 | 
[V:2] c8c8 | 
[V:3] [G,8B,8][B,8G8] | 
[V:4] E,8=E,8 | 
[V:1] c'4>d'4e'4z4 | 
[V:2] F8F4z4 | 
[V:3] A,4>=B,4C4z4 | 
[V:4] F,12A,,4 | 
[V:1] b4>c'4d'4z .d.c.B | 
[V:2] B12D4 | 
[V:3] F4>E4D4B,.D.C.B, | 
[V:4] D4>C4B,4B,,.D,.C,.B,, | 
[V:1] A4z BAGF4z edc | 
[V:2] z4z B,A,G,F4z FFF | 
[V:3] A,4z B,A,G,F,4z A,B,C | 
[V:4] A,,4z B,,A,,G,,F,,4z F,,G,,A,, | 
[V:1] d4z4z4z BAG | 
[V:2] F4z4z4z B,A,G, | 
[V:3] F,4z4z4z B,A,G, | 
[V:4] B,,4z4z4z B,,A,,G,, | 
[V:1] ^F4z GF=ED4z cBA | 
[V:2] ^F4z GF=ED4z DDD | 
[V:3] ^F,4z G,F,=E,D,4z D,D,D, | 
[V:4] ^F,,4z G,,F,,=E,,D,,4z D,,E,,F,, | 
[V:1] B4z AG=F=E4z dcB | 
[V:2] D4z B,B,B,B,4z BAG | 
[V:3] D,4z D,D,D,G,4z =E,=F,G, | 
[V:4] G,,4z G,,A,,B,,C,4z C,C,C, | 
[V:1] A4z gfed4z bab | 
[V:2] C4z cccB4z BBB | 
[V:3] A,4z A,A,A,B,4z DDD | 
[V:4] F,4z F,F,F,G,4z G,G,G, | 
[V:1] c4z g^fgA4d'e'd'^c' | 
[V:2] B4z GGGF4F4- | 
[V:3] G4z CCCC4B,4- | 
[V:4] E,4z E,E,E,F,4F,4- | 
[V:1] d'e'd'=c' bc'ba abag =fgf=e | 
[V:2] F4G8A4- | 
[V:3] B,8C8 | 
[V:4] F,4B,,2G,2-G,4C,2A,2- | 
[V:1] efed cdcB BcBA AGFE | 
[V:2] A4B4-B4c4 | 
[V:3] D8G2C4A2 | 
[V:4] A,2F,2D,2B,2- B,2E,2=E,2F,2 | 
[V:1] .D4.d4.f4.f4 | 
[V:2] d GFE DEFG C2 z2z4 | 
[V:3] B4z4z F,=E,D, C,D,E,F, | 
[V:4] .B,,4.B,,4.A,,4.A,,4 | 
[V:1] g4a4b4c'4 | 
[V:2] z DCB, B,CB,A, A,B,A,G, GAGF | 
[V:3] =E,4D,4C,4C4 | 
[V:4] G,,4F,,4=E,,4_E,,4 | 
[V:1] .b4.c'4.f4.a4 | 
[V:2] F4z4z DCB, A,CDE | 
[V:3] z DCB, A,B,A,.G, G,F,E,D, C,A,B,C | 
[V:4] .D,,4.E,,4.F,,4.F,,4 | 
[V:1] z8.e'4.f'4 | 
[V:2] .D4.c4.F4.A4 | 
[V:3] .B,4.C4.F,4.A,4 | 
[V:4] z16 | 
[V:1] .b4.c'4.f4.a4 | 
[V:2] BdcB FdcB BcBA AGFE | 
[V:3] B,DCB, F,DCB, B,CB,A, A,G,F,E, | 
[V:4] .D,,4.D,,4.F,,4.F,,4 | 
[V:1] b4c'2f2d'4e'4 | 
[V:2] .D4.D4.F4.F4 | 
[V:3] D,E,D,C, D,CB,A, A,B,A,G, G,A,G,F, | 
[V:4] G,,4A,,4B,,4C,4 | 
[V:1] .d'4.=e'4f'8- | 
[V:2] FdcB BcBA GAGF.c4 | 
[V:3] .G,4.G,4.C4.C4 | 
[V:4] .B,,4.C,4.F,,4A,B,A,G, | 
[V:1] f'16- | 
[V:2] .B4.c4.F4bc'ba | 
[V:3] D4E4F4.D4 | 
[V:4] G,A,G,F, F,G,F,E, E,D,C,B,,.D,,4 | 
[V:1] f'12e'f'e'd' | 
[V:2] abag gagf edcBe4- | 
[V:3] .C4.D4.F,4z4 | 
[V:4] .E,,4.F,,4G,,B,,A,,G,, C,D,C,B,, | 
[V:1] .c'4d'e'd'c'.b4c'bag | 
[V:2] edce .A2d2- dcBd cdcB | 
[V:3] CDCB, .A2.A,2 B,CB,A, .G,2.C,2 | 
[V:4] A,,B,,A,,G,,.^F,,4G,,A,,G,,=F,,.=E,,4 | 
[V:1] fgfe .d2.b2 efed .c2.a2 | 
[V:2] ABAG.F4GAGF .E2.c2 | 
[V:3] .C2.D2 BcBA.B4.A2.=E2 | 
[V:4] .F,,4.B,,4.G,,2.G,2 A,B,A,G, | 
[V:1] .d2.a2b4-b2.b2.c'2.d'2 | 
[V:2] dedc BcBA GAGF EFED | 
[V:3] .A4.G4z2 .G2.A2.B2 | 
[V:4] .^F,2.^F2 .G2.=F2 .E2.D2.C2.B,2 | 
[V:1] .e'2.=e'2f'4-f'2.g'2a'4- | 
[V:2] .C2.G2.A2.B2 .A2.B2.c2.d2 | 
[V:3] cdcB ABAG FGF=E _EFED | 
[V:4] A,2G,2F,2=E,2 _E,2D,2C,2B,,2 | 
[V:1] a'2.b'4<c''4.a2 .b2.c'2 | 
[V:2] .c2.d2.e2.=e2 f2F2f2f2 | 
[V:3] CDCB, A,B,A,G, F,G,F,E, D,E,D,C, | 
[V:4] A,,2G,,2F,,2=E,,2 _E,,2C,2B,,2A,,2 | 
[V:1] d'8g'8 | 
[V:2] fgfe dedc cBAB cBAG | 
[V:3] F,8B,8 | 
[V:4] B,,8E,,8 | 
[V:1] f'8a'8 | 
[V:2] B6cd d2e2.e2.e2 | 
[V:3] FGFE DEDC CB,A,G, G,F,=E,F, | 
[V:4] D,,8C,,4C,4 | 
[V:1] b'8c''8 | 
[V:2] e2d2.d2.b2 b2a2.a2.a2 | 
[V:3] G,F,=E,F, G,F,E,F, G,F,E,F, F,_E,D,E, | 
[V:4] B,,8F,,8 | 
[V:1] .b'2.B2B2_A2 A2G2B2 .G2 | 
[V:2] .b2.B2B2_A2 A2G2B2 .G2 | 
[V:3] .D,2.B,2B,2_A,2 A,2G,2B,2 .G,2 | 
[V:4] B,,2.B,,2B,,2_A,,2 A,,2G,,2B,,2 .G,,2 | 
[V:1] G2F2B2 ._A2 A2G2B2 G2 | 
[V:2] G2F2B2 ._A2 A2G2B2 .G2 | 
[V:3] G,2F,2B,2 ._A,2 A,2G,2B,2 .G,2 | 
[V:4] G,,2F,,2B,,2 ._A,,2 A,,2G,,2B,,2 .G,,2 | 
[V:1] G2F2B2 .E2 E2D2B2 .D2 | 
[V:2] G2F2B2 .E2 E2D2B2 .D2 | 
[V:3] G,2F,2B,2 .E,2 E,2D,2B,2 .D,2 | 
[V:4] G,,2F,,2B,,2 .E,,2 E,,2D,,2B,,2 .D,,2 | 
[V:1] D4C4-C6B,2 | 
[V:2] D4C4-C6B,2 | 
[V:3] D,4C,4-C,6B,2 | 
[V:4] D,,4C,,4-C,,6B,,2 | 
[V:1] B,4=A,4-A,4B4 | 
[V:2] B,4=A,4-A,4=E4 | 
[V:3] B,4=A,4-A,4B,4 | 
[V:4] B,,4=A,,4-A,,4G,,4 | 
[V:1] [M:3/4]A4>_A4G2e2 | 
[V:2] [M:3/4]F4>F4E2c2 | 
[V:3] [M:3/4]C4>=B,4C2G2 | 
[V:4] [M:3/4]F,,4F,2D,2E,2C,2 | 
[V:1] d4c2 z2b4 | 
[V:2] B2F2F2 z2 F2d2 | 
[V:3] F2B2A2 z2 D2B2 | 
[V:4] D,2E,2F,2 z2[K:clef=tenor] F2B,2 | 
[V:1] a4>_a4g2=a2 | 
[V:2] e4>=B4c2e2 | 
[V:3] F4>F4G2c2 | 
[V:4] C4>D4E2F2 | 
[V:1] a4b2 z2z4 | 
[V:2] e4d2 z2A,4 | 
[V:3] c4B2 z2E,4 | 
[V:4] ^F4G2 z2[K:clef=bass]^F,,4 | 
[V:1] [M:C][M:4/4]bc'ba gagf efed cBb2 | 
[V:2] [M:C][M:4/4]B,4B2B2z4e2e2 | 
[V:3] [M:C][M:4/4]D,4G2G2z4G2G2 | 
[V:4] [M:C][M:4/4]G,,4z4z8 | 
[V:1] [M:3/4]=b4c'2 z2z4 | 
[V:2] [M:3/4]e4c2 z2=B,4 | 
[V:3] [M:3/4]G4A2 z2E,4 | 
[V:4] [M:3/4]z4z4G,,4 | 
[V:1] [M:C][M:4/4]c'd'c'b abag fgfe dcc'2 | 
[V:2] [M:C][M:4/4]C4A2A2z4A2A2 | 
[V:3] [M:C][M:4/4]C,4F2F2z4F2F2 | 
[V:4] [M:C][M:4/4]A,,4z4z8 | 
[V:1] [M:3/4]^c'4d'2 z2z4 | 
[V:2] [M:3/4]A4B2 z2^C4 | 
[V:3] [M:3/4]F4B,2 z2A,4 | 
[V:4] [M:3/4]z4z4F,4 | 
[V:1] [M:C][M:4/4]d'e'd'c' bc'ba gagf efed | 
[V:2] [M:C][M:4/4]D4D2D2z4d2d2 | 
[V:3] [M:C][M:4/4]B,4B,2B,2z4B2B2 | 
[V:4] [M:C][M:4/4]F,4F,2F,2z4[K:clef=tenor]F2F2 | 
[V:1] d'4e'2=e'2e'4f'2^f'2 | 
[V:2] d4_d2d2d4c2c2 | 
[V:3] B4-B2B2B4A2A2 | 
[V:4] F4-F2F2F8- | 
[V:1] ^f'4g'2=f'2f'4e'2=e'2 | 
[V:2] c4=d2d2d4e2_d2 | 
[V:3] A4=B2B2B4c2_B2 | 
[V:4] F8-F4F2F2- | 
[V:1] =e'4f'2_e'2e'4d'2d'2 | 
[V:2] _d4c2c2c4B2B2 | 
[V:3] B4A2A2A4_A2A2 | 
[V:4] F4F2F2-F4F2F2- | 
[V:1] d'4e'2g2g4b2b2 | 
[V:2] B4-B2B2B4-B2B2 | 
[V:3] _A4G2G2G4-_G2G2 | 
[V:4] F4E2E2E4-E2E2 | 
[V:1] b2d'2c'2a2 d'2f'2e'2c'2 | 
[V:2] B4c4=d4c4 | 
[V:3] F4E4D4G,4- | 
[V:4] D4C4B,4E,4 | 
[V:1] b2d'2c'2a2 g2f2g2a2 | 
[V:2] B4A4c4E4 | 
[V:3] G,4C4E4C4 | 
[V:4] =E,4F,12 | 
[V:1] z4b4b4b2b2 | 
[V:2] D4z4z8 | 
[V:3] B,EDC B,CB,A, G,A,G,F, E,F,E,D, | 
[V:4] [K:clef=bass]B,,16 | 
[V:1] e'16 | 
[V:2] A,G,A,B, CB,CD EDEF GFGA | 
[V:3] C,16 | 
[V:4] z4F,,4F,,4F,,2F,,2 | 
[V:1] z4b4b4b2b2 | 
[V:2] B16 | 
[V:3] DEDC B,CB,A, G,A,G,F, E,F,E,D, | 
[V:4] B,,16 | 
[V:1] e'12a2a2 | 
[V:2] A,G,A,B, CB,CD EDEF GFGA | 
[V:3] C,16 | 
[V:4] z4F,,4F,,4F,,2F,,2 | 
[V:1] .b4c'2c'2.b4[c2a2][c2a2] | 
[V:2] .F4E2E2.D4[F2c2][F2c2] | 
[V:3] .D,4A,2A,2.B,4F2F2 | 
[V:4] .B,,4F,,2F,,2.B,,4F,,2F,,2 | 
[V:1] [F4d4b4]z4z8 |]  
[V:2] [B,4F4d4]z4z8 |]  
[V:3] [D,4B,4]z4z8 |]  
[V:4] B,,4z4z8 |]  


